assets/Scorpio/Flat/scorpio_flat.svg

<svg xmlns="http://www.w3.org/2000/svg" width="32" height="32" fill="none"><path fill="#8D65C5" d="M2 6a4 4 0 0 1 4-4h20a4 4 0 0 1 4 4v20a4 4 0 0 1-4 4H6a4 4 0 0 1-4-4V6Z"/><path fill="#fff" d="m27.55 18.67-2-2.12a.756.756 0 0 0-.55-.24c-.21 0-.4.09-.55.24l-2 2.12c-.28.3-.27.78.03 1.06.3.28.78.27 1.06-.03l.46-.48V21.52a1.5 1.5 0 0 1-3-.02V11c0-2.21-1.79-4-4-4a4 4 0 0 0-3 1.36A4 4 0 0 0 11 7a4 4 0 0 0-3 1.36A4 4 0 0 0 5 7c-.55 0-1 .45-1 1s.45 1 1 1c1.1 0 2 .9 2 2v13c0 .55.45 1 1 1s1-.45 1-1V11c0-1.1.9-2 2-2s2 .9 2 2v13c0 .55.45 1 1 1s1-.45 1-1V11c0-1.1.9-2 2-2s2 .9 2 2v10.5c0 1.93 1.57 3.5 3.5 3.5s3.5-1.57 3.5-3.5V19.22l.45.48a.751.751 0 0 0 1.06.04c.31-.29.32-.76.04-1.07Z"/></svg>

<svg width="32" height="32" viewBox="0 0 32 32" fill="none" xmlns="http://www.w3.org/2000/svg">
<path d="M2 6C2 3.79086 3.79086 2 6 2H26C28.2091 2 30 3.79086 30 6V26C30 28.2091 28.2091 30 26 30H6C3.79086 30 2 28.2091 2 26V6Z" fill="#8D65C5"/>
<path d="M27.55 18.67L25.55 16.55C25.41 16.4 25.21 16.31 25 16.31C24.79 16.31 24.6 16.4 24.45 16.55L22.45 18.67C22.17 18.97 22.18 19.45 22.48 19.73C22.78 20.01 23.26 20 23.54 19.7L24 19.22V20.48V21.5V21.52C23.99 22.34 23.32 23 22.5 23C21.67 23 21 22.33 21 21.5V11C21 8.79 19.21 7 17 7C15.81 7 14.73 7.53 14 8.36C13.27 7.53 12.19 7 11 7C9.81 7 8.73 7.53 8 8.36C7.27 7.53 6.19 7 5 7C4.45 7 4 7.45 4 8C4 8.55 4.45 9 5 9C6.1 9 7 9.9 7 11V14.5V24C7 24.55 7.45 25 8 25C8.55 25 9 24.55 9 24V14.5V11C9 9.9 9.9 9 11 9C12.1 9 13 9.9 13 11V24C13 24.55 13.45 25 14 25C14.55 25 15 24.55 15 24V11C15 9.9 15.9 9 17 9C18.1 9 19 9.9 19 11V21.5C19 23.43 20.57 25 22.5 25C24.43 25 26 23.43 26 21.5V20.48V19.22L26.45 19.7C26.6 19.86 26.8 19.94 27 19.94C27.18 19.94 27.37 19.87 27.51 19.74C27.82 19.45 27.83 18.98 27.55 18.67Z" fill="white"/>
</svg>
